X:1
T:We Rally Today
T:We Rally Today
T:Adam Geibel
T:Lycurgus Larabee Ford, 1915
T:Public Domain Courtesy of the Cyber Hymnal™
T:Public Domain Courtesy of the Cyber Hymnal™
C:Adam Geibel
Z:Public Domain
Z:Courtesy of the Cyber Hymnal™
%%score ( 1 2 ) ( 3 4 )
L:1/8
Q:1/4=115
M:3/4
K:Ab
V:1 treble 
V:2 treble 
V:3 bass 
V:4 bass 
V:1
 E2 | [Ec]2 [EA]2 [Ec]2 | [EB]4 E2 | [Ec]2 [EA]2 [Ec]2 | [EB]4 E2 | %5
w: 1.~We|ral- ly to-|day to|hon- or our|king, With|
w: 2.~We|wit- ness to-|day for|Je- sus our|Lord, Who|
w: 3.~Our|hearts are e-|late with|glo- ry with-|in, For|
w: 4.~We|ral- ly to-|day and|wit- ness and|sing To|
 [EA]2 [EB]2 [Ec]2 [Ee]2 [Ed]2 [Ec]2 | B6- | [EB]4 F2 | [Fd]2 [FB]2 [Fd]2 | [Fc]2 [Fc]2 F2 | %10
w: hearts that are loy- al we|sing,|* “All|glo- ry to|Je- sus the|
w: tells of His love in His|word;|* We|ral- ly and|joy- ous- ly|
w: He is re- deem- ing from|sin;|* Let|all in deep|gra- ti- tude|
w: hon- or our Sav- ior and|king;|* Who|hold- eth the|world in His|
 [Fd]2 [FB]2 [Fd]2 | [Fc]4 F2 | [Fd]2 [Fd]2 [Fc]2 | [FB]2 [FB]2 [FA]2 | G4 A2 | [EB]4 [E=B]2 | %16
w: Sav- ior of|men, All|glo- ry a-|gain and a-|gain, *|All glo-|
w: wit- ness and|sing, “All|glo- ry to|Je- sus our|king, *|All glo-|
w: join in the|song, “All|glor- ies to|Je- sus be-|long, *|All glor-|
w: won- der- ful|power, And|guid- eth our|ways ev- ery|hour, *|And guid-|
 [Ec]2 [Ec]2 [EA]2 | [Fd]2 [Ec]2 [DB]2 | [CA]6- | [CA]4 x2 || %20
w: ry a- gain|and a- gain.”|||
w: ry to Je-|sus our king.”|We||
w: ies to Je-|sus be- long.”|||
w: eth our ways|ev- ery hour.|||
"^Refrain""^Sopranos and Altos" [Ee]2 x2 || [Ee]6- | [Ee]2 B2 d2 | [EAc]6- | %24
w: ||||
w: ral-|ly|* to- day,|we|
w: ||||
w: ||||
 [EAc]4"^Male Voices" [Cc]2 | [Cc]6- | [Cc]2 G2 B2 | [CFA]6- |"^Harmony" [CFA]4 [EA]2 | %29
w: |||||
w: * ral-|ly|* to- day;|We|* ral-|
w: |||||
w: |||||
 [FB]2 [FB]2 [FB]2 | [F=B]4 [FB]2 | [Ec]2 [Ec]2 [Ec]2 | !fermata![Ff]4 [Fe]2 | [Fd]2 [DF]2 [Fd]2 | %34
w: |||||
w: ly to- day|to hon-|or our king;|With hearts|that are loy-|
w: |||||
w: |||||
 [Gc]2 [GB]2 [Gc]2 | [EA]6- | [EA]4 x2 |] x4 |] %38
w: ||||
w: al we sing.||||
w: ||||
w: ||||
V:2
 E2 | x6 | x4 E2 | x6 | x4 E2 | x12 | E4 =D2 | x4 F2 | x6 | x4 F2 | x6 | x4 F2 | x6 | x6 | E6 | %15
 x6 | x6 | x6 | x6 | x6 || x4 || x6 | x6 | x6 | x6 | x6 | x6 | x6 | x6 | x6 | x6 | x6 | x6 | x6 | %34
 x6 | x6 | x6 |] x4 |] %38
V:3
 E,2 | [A,,A,]2 [C,A,]2 [A,,A,]2 | [E,G,]4 E,2 | [A,,A,]2 [C,A,]2 [A,,A,]2 | [E,G,]4 [E,G,]2 | %5
 [C,A,]2 [E,G,]2 A,2 x6 | [G,B,]2 [G,B,]2 A,2 | ([E,G,]4 [B,,F,]2 | [E,G,]4) F,2 | %9
 [B,,B,]2 [D,B,]2 [B,,B,]2 | [F,=A,]2 [F,A,]2 F,2 | [B,,B,]2 [D,B,]2 [B,,B,]2 | [F,=A,]4 F,2 | %13
 [B,,B,]2 [B,,B,]2 [C,=A,]2 | [D,B,]2 [D,B,]2 [=D,B,]2 | B,6- | [G,B,]4 [G,D]2 | %17
 [A,C]2 A,2 [C,A,]2 | [B,,A,]2 [E,G,]2 [E,G,]2 | [A,,A,]6- || [A,,A,]4 || z2 x4 | %22
 (E,,2 [E,G,D]2 [E,G,D]2 | [E,G,D]6) | (A,,2 [E,A,C]2 [E,A,C]2 | [E,A,C]4) z2 | %26
 (C,,2 [C,=E,B,]2 [C,E,B,]2 | [C,=E,B,]6) | (F,,2 [C,F,A,]2 [C,F,A,]2 | [C,F,A,]4) [C,A,]2 | %30
 [D,A,]2 [D,A,]2 [D,A,]2 | [=D,A,]4 [D,A,]2 | [E,A,]2 [C,A,]2 [A,,A,]2 | %33
 !fermata![F,=A,]4 [F,A,]2 | [B,,B,]2 [B,,B,]2 [B,,D]2 | [E,E]2 [E,D]2 [E,E]2 | [A,,C]6- |] %37
 [A,,C]4 |] %38
V:4
 E,2 | x6 | x4 E,2 | x6 | x6 | x4 A,2 x6 | x4 A,2 | x6 | x4 F,2 | x6 | x4 F,2 | x6 | x4 F,2 | x6 | %14
 x6 | E,4 F,2 | x6 | x2 A,2 x2 | x6 | x6 || x4 || x6 | x6 | x6 | x6 | x6 | x6 | x6 | x6 | x6 | x6 | %31
 x6 | x6 | x6 | x6 | x6 | x6 |] x4 |] %38

